X: 3877
T: Black Rogue, The
R: jig
M: 6/8
K: Amixolydian
|:c2A BAB|cAA A2d|c2A BAG|AFD D2G|
c2A BAB|cAA AGF|GEG B3|1 AFD D2D:|2 AFD D3||
|:fef gfg|afd cBA|fef gfg|afd dfg|
agf gfe|fed e2d|cBA BAG|AFD D3:|

